!!!OTL: Schlummerlied.
!!!OTL-incipit: LIEBCHEN LASS DICH KUESSEN
!!!COM: C. Geissler
!!!ARE: Europa, Mitteleuropa, Deutschland
!!!SCT: F1095
!!!TXL: @@DE
!!!YEM: Copyright 1995, estate of Helmut Schaffrath.
**kern	**text
*ICvox	*
*clefG2	*
*M6/8	*
*k[b-]	*
*F:	*
=1	=1
!LO:TX:a:t=Sanft.	!
{(8ccL	1._Liebchen
8aJ)	.
8f	.
8fL	laß
8eJ	.
8f	dich
=2	=2
4.dd	küſ-
4.cc}	-ſen
=3	=3
{8.aL	Lieb-
16gJ	.
8f	-chen,
8fL	gu-
8eJ	.
8f	-te
=4	=4
[4.g	Nacht!
8g]	.
4r}	.
=5	=5
{4g	Wirſt
8ff	nun
4ee	ſchlafen
8dd	.
=6	=6
((4dd	müſ-
(8cc)	.
8ccL)	.
8bnJ))	.
8a\}	-ſen,
=7	=7
{4a\	haſt
8g\	ge-
8g\L	-nug
8ffJ	.
8bn	ge-
=8	=8
4cc	-wacht.
8r	.
4r}	.
{16ddL	Nun
16ccJ	.
=9	=9
4cc	ſchließ
8g	die
4dd^^	Aeu-
8cc	-ge-
=10	=10
4.cc	-lein;
4r}	.
{8cc	ſlchaf
=11	=11
4a\	ein,
8cc	mein
4g	Kind,
8cc	ſchlaf
=12	=12
4.f	ein!
4r}	.
{8cc	ſchlaf
=13	=13
4a\	ein,
8cc	mein
4g\	Kind,
8a\	ſchlaf
=14	=14
4f	ein!
8r	.
4r	.
8r}	.
==	==
!!!AGN: Wiegen - Lied
!!!ONB: ESAC (Essen Associative Code) Database: FINK
!!!AMT: compound duple
!!!AIN: vox
!!!EED: Helmut Schaffrath
!!!EEV: 1.0
!!!GTL: Vermischte Lieder
!!!URL-scan: https://www.digitale-sammlungen.de/en/view/bsb11144622?page=691
!!!ENC: Anna Maria Matuszewska
!!!EEV: 2024/08/09
*-	*-
